X: 121
T:Muiñeira da Cabra
M:6/8
L:1/8
Q:200
R:Muiñeira
K:C
CD | E"F."cE {F}EDE |C2 "F."G CDE |F"F."cF {G}FEF |D4EF| 
G"F."cG {A}GFE | F"F."cF {G}FED | EFE DED |1 C4 :|2 |: C3 cBA |  FcF EcE
|
DcD cBA | EcE DcD | CcC cBA | FcF EcE |DcD cBA |
EFE DED :| C3 "F."G ||

